X:397
T:Walker Street Hornpipe
B:Kohler's Violin Repository, 1881
Z:Nigel Gatherer
M:4/4
L:1/8
K:G
D2 | G2 BG dGBG | ABcd cBAG | Bdgd  egdB | cBAG FADF
   | G2 BG dGBG | ABcd cBAG | Bdgd  egdB | edcA G2    :|
ef | g2 dg Bgdg | gabg agef | g2 dg Bgdg | cBAG FADF   |
   | g2 dg Bgdg | gabg agef | gfga  gfed | egfa g2 z2 :|
